!!!SOCIAL_FUNCTION:	oil potlatch songs
!!!PDT:	1939
!!!OTL: No_10_Dance_Song_of_the_Young_Women.krn
!!!LANG: Non-Tone
!!!LING_GROUP: Wakashan
!!!REG: Pacific Northwest
**kern	**kern
*staff2	*staff1
=1-	=1-
*clefF4	*clefF4
*k[b-e-a-]	*k[b-e-a-]
*M4/4	*M4/4
4GG/	2.A-\
4GG/	.
4GG/	.
4GG/	4r
=2	=2
4GG/	2.G\
4GG/	.
4GG/	.
4GG/	4r
=3||	=3||
*M2/4	*M2/4
4GG/	4.G\
4GG/	.
.	16G\LL
.	16A-\JJ
=4||	=4||
*M3/4	*M3/4
4GG/	8G\L
.	8F\J
4GG/	8F\L
.	8E-\J
4GG/	8E-\
.	8r
=5||	=5||
*M2/4	*M2/4
4GG/	8G\L
.	[8F\J
4GG/	8F\L]
.	16G\L
.	16A-\JJ
=6	=6
4GG/	8G\L
.	8G\J
4GG/	8F\L
.	8F\J
=7	=7
4GG/	4.E-\
4GG/	.
.	8E-\
=8	=8
4GG/	8E-\L
.	8E-\J
4GG/	8E-\
.	8r
=9||	=9||
*M4/4	*M4/4
4GG/	2.F\
4GG/	.
4GG/	.
4GG/	4r
=10	=10
4GG/	2.G\
4GG/	.
4GG/	.
4GG/	4r
=11||	=11||
*M2/4	*M2/4
4GG/	8G\L
.	8G\J
4GG/	8F\L
.	8F\J
=12	=12
4GG/	4E-\
4GG/	4r
=13	=13
4GG/	4.F\
4GG/	.
.	8G\
=14	=14
4GG/	8G\L
.	8G\J
4GG/	8F\L
.	8F\J
=15	=15
4GG/	4E-\
4GG/	8r
.	8E-\
=16	=16
4GG/	8E-\L
.	8E-\J
4GG/	8E-\L
.	8E-\J
=17	=17
4GG/	4E-\
4GG/	4r
=18	=18
4GG/	2F\
4GG/	.
==	==
*-	*-
